X:1

T:Barndoor Jig, The

M:6/8

L:1/8

R:Jig

S:O’Neill – Music of Ireland (1903), No. 939

Z:AK/Fiddler’s Companion

K:A Major

EAA AGA|Bcd e2f|{a}gfg ege|dBA G2 A/G/|EAA AGA|Bcd e2f|gfg edB|cAA A2:|

|:aea aea aga b2a|=gdg gdg|=gdg g2 f/^g/|aea aea|aga b2a|efe dcB|cAA A2 z:|

                       

BARNERS OF FALKIRK, THE. English, Reel. England, Northumberland. D Dorian. Standard tuning. AABB. The title refers perhaps to the famous Falkirk Tryst, or cattle market at Falkirk, Scotland, which drew Highlanders from all over the Highlands. As a focal point of Highland culture during the period of the Tryst, a bagpipe competition developed, first held in 1781 and won in that year by one Patrick MacGregor, with second place honors going to a MacArthur. The third place finisher was old John MacGregor, once personal piper and attendant to Bonnie Prince Charlie Stuart. Although the old man had been wounded at the Battle of Culloden in 1745, his piping skills remained intact and he became the piper to Campbell of Glenlyon. The next year, at age 74, he tried again and won second prize (Collinson, 1975). Seattle (William Vickers), 1987, Part 3; No. 451.

                       

BARNES’S MARCH. AKA and see “Baker’s March.” American, March. G Major. From Redfield, central New York state fiddler Alice Clemens, who obtained it from older family members . The first part of the tune has been compared to the bridal chorus “Per Te Immenso Giubilo” from the second finale of Dinizetti's opera "Lucia di Lammermoor." The second section of the tune features a plucked part. The tune became popular among older regional fiddlers according to Chad Miller.

                       

BARNESS GAP. AKA and see “The Bride’s Favourite,” “King of the Pipers.”

                       

BARNEY BRALLAGHAN (Bernard Ua Brolcain). AKA and see "Blewitt's Jig," “The Master Tailor’s Lilt,” “Miss Blewit’s Jig,” "Mrs. Barney Brallaghan," "'Twas on a windy night." Irish, English, American; Hop or Slip Jig (9/8 time). D Major. Standard tuning. One part (Raven): ABBCC (White): AABBC (Roche, O'Neill/1850 & 1001): AABBCC (Cole, Kerr, Tubridy): AABBCC' (O'Neill/Krassen). The tune was set to the words "Barney B(r)allaghan's Courtship" by Hudson, c. 1850. Cole (1000 Fiddle Tunes), 1940; pg. 57. Emmerson (Rantin’ Pipe and Tremblin’ String), 1971; No. 69, pg. 155. Giblin (Collection of Traditional Irish Dance Music), 1928; 98. Kerr (Merry Melodies), vol. 2; No. 229, pg. 26. O'Neill (Krassen), 1976; pg. 83. O'Neill (Music of Ireland: 1850 Melodies), 1903/1979; No. 1145, pg. 216. O'Neill (Dance Music of Ireland: 1001 Gems), 1907/1986; No. 429, pg. 84. Raven (English Country Dance Tunes), 1984; pg. 131. Roche Collection, 1982; vol. II, pg. 26, No. 259. Tubridy (Irish Traditional Music, Book Two), 1999; pg. 42. White’s Unique Collection, 1896; No. 17, pg. 3. Cottey Light Industries CLI-903, Dexter et al - "Over the Water" (1993).

